Sources/FrostedUI/Resources/Icons.xcassets/edit32.imageset/edit-32.svg

<svg width="32" height="32" viewBox="0 0 32 32" fill="none" xmlns="http://www.w3.org/2000/svg" data-fui-icon="true">
  <path
    d="M12.25 3C12.6642 3 13 3.33579 13 3.75C13 4.16421 12.6642 4.5 12.25 4.5H9.75C6.85051 4.5 4.5 6.85051 4.5 9.75V22.25C4.5 25.1495 6.85051 27.5 9.75 27.5H22.25C25.1495 27.5 27.5 25.1495 27.5 22.25V19.75C27.5 19.3358 27.8358 19 28.25 19C28.6642 19 29 19.3358 29 19.75V22.25C29 25.9779 25.9779 29 22.25 29H9.75C6.02208 29 3 25.9779 3 22.25V9.75C3 6.02208 6.02208 3 9.75 3H12.25ZM24.208 3C25.4728 3 26.7026 3.50143 27.6006 4.39941C28.4986 5.29739 29 6.52719 29 7.79199C28.9999 9.07339 28.4917 10.3187 27.582 11.2285L18.0557 20.7549C17.2586 21.5519 16.177 22 15.0498 22H11.75C10.7835 22 10 21.2165 10 20.25V16.9492C10.0001 15.8222 10.4482 14.7413 11.2451 13.9443L20.7715 4.41797C21.6813 3.50836 22.9266 3.00007 24.208 3ZM12.3057 15.0049C11.79 15.5205 11.5001 16.22 11.5 16.9492V20.25C11.5 20.388 11.6119 20.5 11.75 20.5H15.0498C15.7792 20.5 16.4794 20.2101 16.9951 19.6943L23.6992 12.9902L19.0098 8.30078L12.3057 15.0049ZM24.208 4.5C23.3193 4.50007 22.4569 4.85383 21.832 5.47852L20.0703 7.24023L24.7598 11.9297L26.5215 10.168C27.1462 9.5431 27.4999 8.6807 27.5 7.79199C27.5 6.91987 27.1531 6.07302 26.54 5.45996C25.927 4.84691 25.0801 4.5 24.208 4.5Z"
    fill="currentColor"
  />
</svg>

<svg xmlns="http://www.w3.org/2000/svg" width="32" height="32" fill="none" data-fui-icon="true" viewBox="0 0 32 32"><path fill="currentColor" d="M12.25 3a.75.75 0 0 1 0 1.5h-2.5A5.25 5.25 0 0 0 4.5 9.75v12.5c0 2.9 2.35 5.25 5.25 5.25h12.5c2.9 0 5.25-2.35 5.25-5.25v-2.5a.75.75 0 0 1 1.5 0v2.5A6.75 6.75 0 0 1 22.25 29H9.75A6.75 6.75 0 0 1 3 22.25V9.75A6.75 6.75 0 0 1 9.75 3zm11.958 0a4.8 4.8 0 0 1 3.393 1.4A4.8 4.8 0 0 1 29 7.791a4.87 4.87 0 0 1-1.418 3.437l-9.526 9.526A4.25 4.25 0 0 1 15.05 22h-3.3A1.75 1.75 0 0 1 10 20.25v-3.3a4.25 4.25 0 0 1 1.245-3.006l9.527-9.526A4.87 4.87 0 0 1 24.208 3M12.306 15.005a2.75 2.75 0 0 0-.806 1.944v3.301c0 .138.112.25.25.25h3.3c.73 0 1.43-.29 1.945-.806L23.7 12.99 19.01 8.3zM24.208 4.5c-.889 0-1.751.354-2.376.979L20.07 7.24l4.69 4.69 1.761-1.762a3.37 3.37 0 0 0 .979-2.376 3.3 3.3 0 0 0-.96-2.332 3.3 3.3 0 0 0-2.332-.96"/></svg>
